austria/municipalities/41816.svg

<?xml version="1.0" encoding="UTF-8"?>
<!DOCTYPE svg PUBLIC "-//W3C//DTD SVG 1.1//EN" "http://www.w3.org/Graphics/SVG/1.1/DTD/svg11.dtd">
<svg xmlns="http://www.w3.org/2000/svg" version="1.1" width="166px" height="207px" style="shape-rendering:geometricPrecision; text-rendering:geometricPrecision; image-rendering:optimizeQuality; fill-rule:evenodd; clip-rule:evenodd" xmlns:xlink="http://www.w3.org/1999/xlink">
<g><path style="opacity:1" fill="#000000" d="M -0.5,-0.5 C 54.8333,-0.5 110.167,-0.5 165.5,-0.5C 165.5,44.1667 165.5,88.8333 165.5,133.5C 160.657,161.881 145.657,183.381 120.5,198C 112.336,201.554 104.002,204.388 95.5,206.5C 86.8333,206.5 78.1667,206.5 69.5,206.5C 29.593,196.928 6.25968,171.928 -0.5,131.5C -0.5,87.5 -0.5,43.5 -0.5,-0.5 Z"/></g>
<g><path style="opacity:1" fill="#fefffe" d="M 3.5,3.5 C 56.1667,3.5 108.833,3.5 161.5,3.5C 161.667,47.8346 161.5,92.1679 161,136.5C 158.528,148.772 153.861,160.106 147,170.5C 129.239,140.111 102.739,127.278 67.5,132C 45.8334,137.496 29.5,149.996 18.5,169.5C 10.7,159.552 5.86663,148.219 4,135.5C 3.50001,91.5013 3.33334,47.5013 3.5,3.5 Z"/></g>
<g><path style="opacity:1" fill="#000000" d="M 54.5,30.5 C 61.2887,29.899 67.7887,30.5657 74,32.5C 74.6667,58.1667 74.6667,83.8333 74,109.5C 67.5898,110.478 61.0898,110.811 54.5,110.5C 54.5,100.833 54.5,91.1667 54.5,81.5C 48.1579,81.6662 41.8246,81.4995 35.5,81C 34.3567,74.5816 34.19,68.0816 35,61.5C 35.5,61 36,60.5 36.5,60C 42.4908,59.5005 48.4908,59.3338 54.5,59.5C 54.5,49.8333 54.5,40.1667 54.5,30.5 Z"/></g>
<g><path style="opacity:1" fill="#000000" d="M 91.5,30.5 C 97.7576,30.1903 103.924,30.5236 110,31.5C 110.5,40.8274 110.666,50.1607 110.5,59.5C 116.893,59.2071 123.227,59.5404 129.5,60.5C 130.811,67.3901 130.811,74.2235 129.5,81C 123.175,81.4995 116.842,81.6662 110.5,81.5C 110.5,91.1667 110.5,100.833 110.5,110.5C 103.91,110.811 97.4102,110.478 91,109.5C 90.1848,83.1243 90.3514,56.7909 91.5,30.5 Z"/></g>
<g><path style="opacity:1" fill="#e10a15" d="M 56.5,32.5 C 61.5,32.5 66.5,32.5 71.5,32.5C 71.5,57.8333 71.5,83.1667 71.5,108.5C 66.5,108.5 61.5,108.5 56.5,108.5C 56.5,98.5 56.5,88.5 56.5,78.5C 49.8333,78.5 43.1667,78.5 36.5,78.5C 36.5,73.1667 36.5,67.8333 36.5,62.5C 43.1667,62.5 49.8333,62.5 56.5,62.5C 56.5,52.5 56.5,42.5 56.5,32.5 Z"/></g>
<g><path style="opacity:1" fill="#e10a15" d="M 93.5,32.5 C 98.5,32.5 103.5,32.5 108.5,32.5C 108.5,42.5 108.5,52.5 108.5,62.5C 114.833,62.5 121.167,62.5 127.5,62.5C 127.5,67.8333 127.5,73.1667 127.5,78.5C 121.167,78.5 114.833,78.5 108.5,78.5C 108.5,88.5 108.5,98.5 108.5,108.5C 103.5,108.5 98.5,108.5 93.5,108.5C 93.5,83.1667 93.5,57.8333 93.5,32.5 Z"/></g>
<g><path style="opacity:1" fill="#fefffe" d="M -0.5,131.5 C 6.25968,171.928 29.593,196.928 69.5,206.5C 46.1667,206.5 22.8333,206.5 -0.5,206.5C -0.5,181.5 -0.5,156.5 -0.5,131.5 Z"/></g>
<g><path style="opacity:1" fill="#00612a" d="M 75.5,133.5 C 105.782,132.328 128.615,144.661 144,170.5C 144.52,172.289 144.187,173.956 143,175.5C 116.121,203.011 84.6209,209.844 48.5,196C 37.8313,190.331 28.6646,182.831 21,173.5C 20.3333,172.5 20.3333,171.5 21,170.5C 32.8666,148.83 51.0333,136.497 75.5,133.5 Z"/></g>
<g><path style="opacity:1" fill="#fefffe" d="M 165.5,133.5 C 165.5,157.833 165.5,182.167 165.5,206.5C 142.167,206.5 118.833,206.5 95.5,206.5C 104.002,204.388 112.336,201.554 120.5,198C 145.657,183.381 160.657,161.881 165.5,133.5 Z"/></g>
</svg>

<svg xmlns="http://www.w3.org/2000/svg" width="166" height="207" style="shape-rendering:geometricPrecision;text-rendering:geometricPrecision;image-rendering:optimizeQuality;fill-rule:evenodd;clip-rule:evenodd"><path style="opacity:1" d="M-.5-.5h166v134c-4.843 28.381-19.843 49.881-45 64.5a157.946 157.946 0 0 1-25 8.5h-26c-39.907-9.572-63.24-34.572-70-75V-.5z"/><path style="opacity:1" fill="#fefffe" d="M3.5 3.5h158c.167 44.335 0 88.668-.5 133-2.472 12.272-7.139 23.606-14 34-17.761-30.389-44.261-43.222-79.5-38.5-21.667 5.496-38 17.996-49 37.5-7.8-9.948-12.633-21.281-14.5-34-.5-43.999-.667-87.999-.5-132z"/><path style="opacity:1" d="M54.5 30.5c6.789-.601 13.289.066 19.5 2 .667 25.667.667 51.333 0 77a98.261 98.261 0 0 1-19.5 1v-29c-6.342.166-12.675 0-19-.5-1.143-6.418-1.31-12.918-.5-19.5l1.5-1.5c5.99-.5 11.99-.666 18-.5v-29zM91.5 30.5a88.66 88.66 0 0 1 18.5 1c.5 9.327.666 18.66.5 28a96.225 96.225 0 0 1 19 1c1.311 6.89 1.311 13.724 0 20.5-6.325.5-12.658.666-19 .5v29a98.26 98.26 0 0 1-19.5-1c-.815-26.376-.649-52.71.5-79z"/><path style="opacity:1" fill="#e10a15" d="M56.5 32.5h15v76h-15v-30h-20v-16h20v-30zM93.5 32.5h15v30h19v16h-19v30h-15v-76z"/><path style="opacity:1" fill="#fefffe" d="M-.5 131.5c6.76 40.428 30.093 65.428 70 75h-70v-75z"/><path style="opacity:1" fill="#00612a" d="M75.5 133.5c30.282-1.172 53.115 11.161 68.5 37 .52 1.789.187 3.456-1 5-26.879 27.511-58.38 34.344-94.5 20.5-10.669-5.669-19.835-13.169-27.5-22.5-.667-1-.667-2 0-3 11.867-21.67 30.033-34.003 54.5-37z"/><path style="opacity:1" fill="#fefffe" d="M165.5 133.5v73h-70a157.946 157.946 0 0 0 25-8.5c25.157-14.619 40.157-36.119 45-64.5z"/></svg>
